libs/ui/packages/crypto-icons/src/svg/ITC.svg

<svg width="24" height="24" viewBox="0 0 24 24" fill="none">
<path d="M18.0403 14.5124C18.3778 14.6421 18.6013 14.9631 18.6043 15.3224C18.6044 15.4729 18.5652 15.6208 18.4904 15.7515C18.4157 15.8821 18.3081 15.991 18.1783 16.0671C18.048 16.1437 17.9001 16.1853 17.749 16.1879C17.5979 16.1906 17.4487 16.1541 17.3158 16.0821L12.7933 18.5496C12.8044 18.6689 12.7908 18.7892 12.7533 18.903C12.7158 19.0167 12.6552 19.1215 12.5753 19.2107C12.4953 19.3 12.3978 19.3717 12.2888 19.4215C12.1799 19.4712 12.0618 19.4979 11.942 19.4999C11.7114 19.5055 11.488 19.4193 11.3209 19.2603C11.1538 19.1012 11.0567 18.8823 11.051 18.6516L8.84602 17.3894H8.79577V17.3631L6.47227 16.0349C6.32718 16.1349 6.15501 16.1883 5.97877 16.1879C5.76894 16.189 5.56579 16.1142 5.40675 15.9774C5.2477 15.8405 5.14347 15.6508 5.11327 15.4431C5.08428 15.2356 5.13154 15.0247 5.2463 14.8494C5.36105 14.6741 5.53549 14.5463 5.73727 14.4899V9.52788C5.5675 9.48025 5.41628 9.38202 5.30373 9.2463C5.19118 9.11057 5.12265 8.94378 5.10727 8.76813C5.07727 8.40963 5.27302 8.06988 5.60077 7.91463C5.76064 7.83871 5.93974 7.81291 6.11455 7.84062C6.28936 7.86832 6.4517 7.94824 6.58027 8.06988L11.0578 5.50488C11.0382 5.38049 11.0459 5.25333 11.0803 5.1322C11.1147 5.01106 11.175 4.89884 11.257 4.80328C11.339 4.70773 11.4408 4.63111 11.5553 4.57873C11.6698 4.52634 11.7943 4.49944 11.9203 4.49988C12.0498 4.49967 12.1778 4.52841 12.2949 4.584C12.4119 4.63958 12.5151 4.72062 12.5968 4.82118C12.6786 4.92173 12.7368 5.03928 12.7673 5.16522C12.7978 5.29117 12.7997 5.42233 12.773 5.54913L17.144 8.05263C17.3038 7.90863 17.5115 7.82913 17.7283 7.82988C17.8465 7.78571 17.9729 7.76795 18.0987 7.77784C18.2245 7.78774 18.3466 7.82504 18.4565 7.88714C18.5663 7.94924 18.6613 8.03463 18.7346 8.13732C18.808 8.24 18.858 8.3575 18.8811 8.48156C18.9042 8.60561 18.8999 8.73323 18.8684 8.85544C18.837 8.97765 18.7791 9.09149 18.699 9.18898C18.6189 9.28648 18.5184 9.36525 18.4046 9.41978C18.2908 9.47431 18.1664 9.50327 18.0403 9.50463V14.5131V14.5124ZM14.9518 12.5586V16.8209L16.9558 15.7281C16.8933 15.6086 16.8595 15.4762 16.857 15.3414C16.8545 15.2065 16.8833 15.073 16.9413 14.9512C16.9993 14.8294 17.0848 14.7228 17.191 14.6398C17.2973 14.5567 17.4214 14.4995 17.5535 14.4726V9.54513C17.3565 9.50618 17.1791 9.40029 17.0512 9.2454C16.9234 9.09052 16.8531 8.89619 16.8523 8.69538C16.8523 8.61588 16.8635 8.53638 16.8853 8.45913L14.9855 7.37013V11.3331H14.9825L14.975 11.5926L14.8678 11.6429L14.183 12.0524L14.8378 12.4424L14.942 12.4919L14.945 12.5384L14.9488 12.5586H14.9518ZM11.9218 6.23163C11.6728 6.23163 11.4358 6.12663 11.27 5.94138L9.28252 7.08063V11.2896L10.0985 11.7756L11.129 11.1696C11.1078 11.0582 11.1114 10.9434 11.1398 10.8335C11.1682 10.7236 11.2205 10.6214 11.2931 10.5341C11.3656 10.4468 11.4566 10.3767 11.5595 10.3288C11.6623 10.2809 11.7745 10.2563 11.888 10.2569C11.9988 10.2566 12.1082 10.2803 12.209 10.3263C12.3097 10.3723 12.3993 10.4395 12.4717 10.5233C12.5441 10.6071 12.5975 10.7056 12.6282 10.812C12.659 10.9183 12.6664 11.0301 12.65 11.1396L13.7143 11.7726L14.5033 11.3001V7.09338L12.5428 5.97063C12.4618 6.0532 12.3652 6.11875 12.2585 6.16345C12.1519 6.20814 12.0374 6.23107 11.9218 6.23088V6.23163ZM12.4318 12.5481L13.244 12.0591L12.428 11.5724C12.2863 11.7101 12.0973 11.7886 11.8997 11.7918C11.7021 11.795 11.5107 11.7227 11.3645 11.5896L10.562 12.0554L11.3608 12.5316C11.5072 12.3963 11.7002 12.3225 11.8996 12.3256C12.099 12.3286 12.2895 12.4083 12.4318 12.5481ZM6.78577 15.6584L8.79577 16.8104V12.6914L8.79952 12.5586L8.83327 12.5249L9.00127 12.4251L9.62527 12.0591L9.06127 11.7261L8.79952 11.5926V11.4329H8.79652V7.35663L6.82552 8.48613C6.94177 8.93613 6.67552 9.39663 6.22552 9.52488V14.4929C6.46327 14.5619 6.66052 14.7291 6.76777 14.9511C6.87502 15.1739 6.88177 15.4311 6.78577 15.6584ZM11.9218 17.7531C12.1955 17.7531 12.4528 17.8806 12.6163 18.0996L14.4688 17.0871V12.7851L13.7143 12.3351L12.6493 12.9749C12.6568 13.0124 12.6598 13.0499 12.6598 13.0874C12.6598 13.5111 12.3148 13.8539 11.8873 13.8539C11.775 13.8539 11.664 13.8294 11.5622 13.782C11.4604 13.7346 11.3703 13.6654 11.2981 13.5794C11.2259 13.4934 11.1734 13.3927 11.1443 13.2842C11.1152 13.1757 11.1103 13.0622 11.1298 12.9516L10.085 12.3321L9.27952 12.8016V17.0871L11.1733 18.1724C11.3308 17.9114 11.615 17.7524 11.9218 17.7531Z" fill="#102044"/>
</svg>

<svg width="24" height="24" viewBox="0 0 24 24" fill="none"><path fill="#102044" d="M18.04 14.512a.863.863 0 0 1-.291 1.675.9.9 0 0 1-.433-.105l-4.523 2.468a.871.871 0 0 1-1.472.71.87.87 0 0 1-.27-.608l-2.205-1.263h-.05v-.026l-2.324-1.328a.87.87 0 0 1-.493.153.87.87 0 0 1-.866-.745.865.865 0 0 1 .624-.953V9.528a.87.87 0 0 1-.63-.76.865.865 0 0 1 .494-.853.88.88 0 0 1 .98.155l4.477-2.565A.87.87 0 0 1 11.92 4.5a.87.87 0 0 1 .853 1.05l4.371 2.503a.87.87 0 0 1 .584-.223.864.864 0 1 1 .312 1.675v5.008m-3.088-1.953v4.262l2.004-1.093a.87.87 0 0 1 .598-1.255V9.545a.87.87 0 0 1-.669-1.086l-1.9-1.089v3.963h-.002l-.008.26-.107.05-.685.41.655.39.104.049.003.046.004.02zm-3.03-6.327a.87.87 0 0 1-.652-.29L9.283 7.08v4.209l.816.486 1.03-.606a.769.769 0 0 1 1.08-.844.77.77 0 0 1 .441.814l1.064.633.79-.473V7.093l-1.961-1.122a.87.87 0 0 1-.621.26m.51 6.316.812-.489-.816-.487a.776.776 0 0 1-1.064.018l-.802.465.799.477a.776.776 0 0 1 1.07.016m-5.646 3.11 2.01 1.152V12.69l.004-.132.033-.034.168-.1.624-.366-.564-.333-.261-.133v-.16h-.003V7.357l-1.971 1.13c.116.45-.15.91-.6 1.038v4.968a.87.87 0 0 1 .542.458.86.86 0 0 1 .018.707m5.136 2.095c.273 0 .53.128.694.347l1.853-1.013v-4.302l-.755-.45-1.065.64q.011.056.01.112a.77.77 0 0 1-1.097.695.77.77 0 0 1-.432-.83l-1.045-.62-.805.47v4.285l1.893 1.085a.87.87 0 0 1 .749-.419"/></svg>
